assets/calculator-bot.svg

<?xml version="1.0"?>
<svg width="400" height="400" xmlns="http://www.w3.org/2000/svg" xmlns:svg="http://www.w3.org/2000/svg" xmlns:xlink="http://www.w3.org/1999/xlink">
 <!-- Created with SVG-edit - https://github.com/SVG-Edit/svgedit-->
 <defs>
  <symbol height="278.86" id="svg_15" version="1.1" viewBox="0 0 138.30096109824444 139.43001089805875" width="276.6" xmlns="http://www.w3.org/2000/svg">
   <!-- svg-source:excalidraw -->
   <defs>
    <style class="style-fonts">@font-face {
        font-family: &quot;Virgil&quot;;
        src: url(&quot;https://excalidraw.com/Virgil.woff2&quot;);
      }
      @font-face {
        font-family: &quot;Cascadia&quot;;
        src: url(&quot;https://excalidraw.com/Cascadia.woff2&quot;);
      }</style>
   </defs>
   <g stroke-linecap="round" transform="translate(10 10) rotate(0 59.15048054912222 59.71500544902938)">
    <path d="m0,0l118.3,0l0,119.43l-118.3,0" fill="#000" stroke-width="0"/>
    <path d="m0,0c38.18,0 76.35,0 118.3,0m-118.3,0c40.55,0 81.1,0 118.3,0m0,0c0,41.61 0,83.22 0,119.43m0,-119.43c0,39.1 0,78.2 0,119.43m0,0c-39.6,0 -79.2,0 -118.3,0m118.3,0c-42.1,0 -84.21,0 -118.3,0m0,0c0,-25.57 0,-51.15 0,-119.43m0,119.43c0,-40.58 0,-81.15 0,-119.43" fill="none" stroke="#000000" stroke-width="4"/>
   </g>
   <g stroke-linecap="round" transform="translate(38.20778148737372 30.909091371124305) rotate(0 30.376239484801772 37.79276056384697)">
    <path d="m1.24,1.07c23.77,-1.1 44.19,-0.62 59.46,-0.92m-60.75,-0.88c21.61,1.57 42.74,1.19 59.82,0.8m2.08,-0.24c-1.47,20.02 -0.34,43.56 -3.04,76.05m2.15,-75.1c-0.1,22.84 -0.29,48.94 -0.86,74.26m-0.41,0.21c-11.99,-0.72 -27.98,0.23 -61.19,1.82m61.74,-1.73c-14.17,0.87 -28.9,0.13 -60.58,-0.67m-0.41,1.12c1.56,-22.58 0.57,-48.75 -0.28,-76.44m1.28,76.5c-0.37,-24.84 -0.16,-50.86 -0.02,-76.02" fill="none" stroke="#ffffff" stroke-width="4"/>
   </g>
   <g stroke-linecap="round" transform="translate(44.04632544168999 39.43018891305837) rotate(0 24.8532819261236 7.968831883761595)">
    <path d="m0,0c0,0 0,0 0,0m0,0c0,0 0,0 0,0m4.21,18.52c2.99,-3.88 10.15,-11.92 18.57,-19.97m-18.3,20.44c5.81,-7.2 12.43,-14.49 17.59,-19.37m2.65,19.44c5.07,-5.14 14.51,-13.13 17.24,-19.39m-16.52,19.43c5.4,-6.43 10.59,-11.1 17.5,-18.51" fill="none" stroke="#ffffff" stroke-width="2"/>
    <path d="m0.93,0.94c15.52,0.27 34.34,-2.6 47.08,0.47m-47.84,-1.79c18.61,-0.51 36.74,-0.36 49.6,0.32m-1.04,0.06c0.33,4.48 2.08,8.1 0.3,15.52m1.3,-15c-0.97,3.6 -1.32,7.31 -0.69,15.98m1.05,0.13c-18.84,0.49 -35.76,-1.8 -49.15,0.31m48.75,-1.4c-19.16,0.8 -36.96,-0.95 -50.52,-0.13m-0.65,-0.27c-0.12,-1.89 -0.43,-6.84 0.8,-16.65m-0.24,17.32c0.38,-3.8 0.24,-6.81 -0.03,-16.36" fill="none" stroke="#ffffff" stroke-width="4"/>
   </g>
   <g stroke-linecap="round" transform="translate(46.24899487455332 67.06567500392885) rotate(0 5.7144517078941135 5.786785421925742)">
    <path d="m2.86,0m0,0c1.48,-0.18 3.52,-0.32 5.71,0m-5.71,0c1.71,-0.01 3.11,-0.22 5.71,0m0,0c1.81,-1.99 3.55,1.45 2.86,2.86m-2.86,-2.86c1.63,-1.68 3.89,0.35 2.86,2.86m0,0c-0.37,1.23 0.41,2.99 0,5.86m0,-5.86c0.03,2 0.05,3.93 0,5.86m0,0c-0.71,2.55 -2.75,3.33 -2.86,2.85m2.86,-2.85c2.03,1.03 1.3,5.09 -2.86,2.85m0,0c-1.46,-0.55 -3.19,0.24 -5.71,0m5.71,0c-1.49,0.16 -3.22,-0.08 -5.71,0m0,0c-3.7,0.6 -3.9,-1.19 -2.86,-2.85m2.86,2.85c-3.58,0.81 -3.93,-1.91 -2.86,-2.85m0,0c0.09,-1.3 -0.51,-2.81 0,-5.86m0,5.86c0.22,-2.26 -0.2,-4.26 0,-5.86m0,0c-1.03,-0.11 0.76,-2.01 2.86,-2.86m-2.86,2.86c0.89,0.06 -1.29,-0.71 2.86,-2.86" fill="none" stroke="#ffffff" stroke-width="2"/>
   </g>
   <g stroke-linecap="round" transform="translate(62.59666258775178 66.99334680860738) rotate(0 5.7144517078941135 5.786785421925742)">
    <path d="m2.86,0m0,0c1.51,-0.34 2.17,0.54 5.71,0m-5.71,0c2.38,-0.18 4.46,-0.29 5.71,0m0,0c2.59,0.5 2.62,-0.51 2.86,2.86m-2.86,-2.86c2.93,-0.6 1.36,2.55 2.86,2.86m0,0c0.33,2 0.24,3.61 0,5.86m0,-5.86c0.04,1.07 -0.1,2.51 0,5.86m0,0c-1.8,2.38 0.81,2.09 -2.86,2.85m2.86,-2.85c2.25,4.14 -1.67,2.28 -2.86,2.85m0,0c-1.46,0.23 -2.85,0.12 -5.71,0m5.71,0c-2.37,-0.12 -4.77,0.11 -5.71,0m0,0c-2.95,-0.24 -4.31,-0.25 -2.86,-2.85m2.86,2.85c-2.98,-0.96 -3.93,1.29 -2.86,-2.85m0,0c-0.47,-1.31 0.34,-2.51 0,-5.86m0,5.86c-0.21,-1.66 -0.2,-2.97 0,-5.86m0,0c-0.2,-1.06 1.73,-1.15 2.86,-2.86m-2.86,2.86c-2.24,0.24 -1.26,-1.6 2.86,-2.86" fill="none" stroke="#ffffff" stroke-width="2"/>
   </g>
   <g stroke-linecap="round" transform="translate(79.5529136733312 67.10184462030338) rotate(0 5.7144517078941135 5.786785421925742)">
    <path d="m2.86,0m0,0c1.24,0.55 3.48,0.5 5.71,0m-5.71,0c1.79,-0.25 3.7,0.11 5.71,0m0,0c1.67,-1.46 3.75,0.43 2.86,2.86m-2.86,-2.86c0.41,1.6 2.91,-0.65 2.86,2.86m0,0c0.31,1.68 -0.51,3.26 0,5.86m0,-5.86c-0.1,1.79 -0.26,3.46 0,5.86m0,0c1.77,1.14 1,4.8 -2.86,2.85m2.86,-2.85c-0.72,1.32 -2.43,3.15 -2.86,2.85m0,0c-1.36,0.2 -1.85,0.16 -5.71,0m5.71,0c-2.18,0.06 -4,-0.06 -5.71,0m0,0c-3.36,0.71 -3.79,-1.79 -2.86,-2.85m2.86,2.85c-2.97,2.24 -4,-0.39 -2.86,-2.85m0,0c0.4,-1.52 -0.1,-3.39 0,-5.86m0,5.86c-0.12,-1.21 0,-2.81 0,-5.86m0,0c0.77,-0.2 -1,-0.99 2.86,-2.86m-2.86,2.86c-2.22,-0.65 2.07,-1.73 2.86,-2.86" fill="none" stroke="#ffffff" stroke-width="2"/>
   </g>
   <g stroke-linecap="round" transform="translate(45.56182459124466 84.87811284337477) rotate(0 5.7144517078941135 5.786785421925742)">
    <path d="m2.86,0m0,0c1.87,0.41 2.78,0.24 5.71,0m-5.71,0c1.47,0.13 2.72,-0.15 5.71,0m0,0c2.8,-0.52 1.56,2.34 2.86,2.86m-2.86,-2.86c1.95,-1.6 2.29,2.42 2.86,2.86m0,0c-0.52,2.03 -0.03,4.06 0,5.86m0,-5.86c-0.29,1.55 0.24,2.85 0,5.86m0,0c1.95,3.85 -1.58,2.35 -2.86,2.85m2.86,-2.85c-1.47,2.2 -3.03,2.38 -2.86,2.85m0,0c-1.45,0.15 -3.77,-0.21 -5.71,0m5.71,0c-1.58,-0.01 -3.07,0.12 -5.71,0m0,0c-2.84,-0.83 -3.79,1 -2.86,-2.85m2.86,2.85c-3.04,0.56 -2.1,-2.74 -2.86,-2.85m0,0c-0.18,-1.41 -0.33,-4.16 0,-5.86m0,5.86c0,-1.56 0.14,-3.11 0,-5.86m0,0c-1.95,-0.04 -0.98,-1.77 2.86,-2.86m-2.86,2.86c1.12,-0.78 -1.3,-4.56 2.86,-2.86" fill="none" stroke="#ffffff" stroke-width="2"/>
   </g>
   <g stroke-linecap="round" transform="translate(62.01173967860086 84.80578464805694) rotate(0 5.7144517078941135 5.786785421925742)">
    <path d="m2.86,0m0,0c2.32,0.25 4.12,-0.07 5.71,0m-5.71,0c1.11,-0.22 2.41,-0.09 5.71,0m0,0c0.6,1.39 2.9,-0.44 2.86,2.86m-2.86,-2.86c1.34,1.47 3.78,2.04 2.86,2.86m0,0c-0.12,1.91 -0.33,3.45 0,5.86m0,-5.86c0.21,1.84 0.23,4.18 0,5.86m0,0c-0.63,1.4 -2.23,3.11 -2.86,2.85m2.86,-2.85c-2.08,1.43 0.16,2.21 -2.86,2.85m0,0c-1.67,-0.21 -4.05,-0.5 -5.71,0m5.71,0c-2.09,0.1 -3.9,-0.12 -5.71,0m0,0c-2.83,1.95 -3.85,-0.46 -2.86,-2.85m2.86,2.85c-1.15,-1.79 -2.21,0.44 -2.86,-2.85m0,0c-0.28,-2.5 -0.06,-4.68 0,-5.86m0,5.86c0.12,-2.04 -0.28,-4.3 0,-5.86m0,0c-1.93,-0.81 1.93,-1.88 2.86,-2.86m-2.86,2.86c-2.25,-3.61 -0.04,-0.99 2.86,-2.86" fill="none" stroke="#ffffff" stroke-width="2"/>
   </g>
   <g stroke-linecap="round" transform="translate(78.86574339002618 84.91428245974748) rotate(0 5.7144517078941135 5.786785421925742)">
    <path d="m2.86,0m0,0c1.84,-0.06 3.79,0.17 5.71,0m-5.71,0c1.98,-0.03 3.53,0.24 5.71,0m0,0c1.95,-1.39 2.36,2.23 2.86,2.86m-2.86,-2.86c2.83,1.09 3.14,-1.21 2.86,2.86m0,0c-0.28,1.59 0.18,3.07 0,5.86m0,-5.86c0.34,2.18 -0.04,3.72 0,5.86m0,0c-1.28,2.16 -2.76,2.44 -2.86,2.85m2.86,-2.85c1.11,1.26 -0.28,5.03 -2.86,2.85m0,0c-2.12,-0.53 -3.51,-0.32 -5.71,0m5.71,0c-1.78,-0.1 -3.42,0.3 -5.71,0m0,0c-2.9,0.49 -2.2,-2.51 -2.86,-2.85m2.86,2.85c-1.26,1.39 -1.17,-1.5 -2.86,-2.85m0,0c-0.05,-2.58 0.55,-4.62 0,-5.86m0,5.86c-0.31,-1.74 -0.31,-3.86 0,-5.86m0,0c0.97,-0.92 -1.01,-4.34 2.86,-2.86m-2.86,2.86c-1,-0.03 -1.19,-4.28 2.86,-2.86" fill="none" stroke="#ffffff" stroke-width="2"/>
   </g>
  </symbol>
 </defs>
 <g class="layer">
  <title>Layer 1</title>
  <use id="svg_16" transform="matrix(1.63508 0 0 1.63508 -8.78033 -8.09899)" x="-10.46" xlink:href="#svg_15" y="-11.5"/>
 </g>
</svg>

<svg version="1.1" xmlns="http://www.w3.org/2000/svg" viewBox="0 0 138.30096109824444 139.43001089805875" width="276.6019221964889" height="278.8600217961175">
  <!-- svg-source:excalidraw -->
  
  <defs>
    <style class="style-fonts">
      @font-face {
        font-family: "Virgil";
        src: url("https://excalidraw.com/Virgil.woff2");
      }
      @font-face {
        font-family: "Cascadia";
        src: url("https://excalidraw.com/Cascadia.woff2");
      }
    </style>
    
  </defs>
  <g stroke-linecap="round" transform="translate(10 10) rotate(0 59.15048054912222 59.71500544902938)"><path d="M0 0 L118.3 0 L118.3 119.43 L0 119.43" stroke="none" stroke-width="0" fill="#000"></path><path d="M0 0 C38.18 0, 76.35 0, 118.3 0 M0 0 C40.55 0, 81.1 0, 118.3 0 M118.3 0 C118.3 41.61, 118.3 83.22, 118.3 119.43 M118.3 0 C118.3 39.1, 118.3 78.2, 118.3 119.43 M118.3 119.43 C78.7 119.43, 39.1 119.43, 0 119.43 M118.3 119.43 C76.2 119.43, 34.09 119.43, 0 119.43 M0 119.43 C0 93.86, 0 68.28, 0 0 M0 119.43 C0 78.85, 0 38.28, 0 0" stroke="#000000" stroke-width="4" fill="none"></path></g><g stroke-linecap="round" transform="translate(38.20778148737372 30.909091371124305) rotate(0 30.376239484801772 37.79276056384697)"><path d="M1.24 1.07 C25.01 -0.03, 45.43 0.45, 60.7 0.15 M-0.05 -0.73 C21.56 0.84, 42.69 0.46, 59.77 0.07 M61.85 -0.17 C60.38 19.85, 61.51 43.39, 58.81 75.88 M60.96 0.78 C60.86 23.62, 60.67 49.72, 60.1 75.04 M59.69 75.25 C47.7 74.53, 31.71 75.48, -1.5 77.07 M60.24 75.34 C46.07 76.21, 31.34 75.47, -0.34 74.67 M-0.75 75.79 C0.81 53.21, -0.18 27.04, -1.03 -0.65 M0.25 75.85 C-0.12 51.01, 0.09 24.99, 0.23 -0.17" stroke="#ffffff" stroke-width="4" fill="none"></path></g><g stroke-linecap="round" transform="translate(44.04632544168999 39.43018891305837) rotate(0 24.8532819261236 7.968831883761595)"><path d="M0 0 C0 0, 0 0, 0 0 M0 0 C0 0, 0 0, 0 0 M4.21 18.52 C7.2 14.64, 14.36 6.6, 22.78 -1.45 M4.48 18.99 C10.29 11.79, 16.91 4.5, 22.07 -0.38 M24.72 19.06 C29.79 13.92, 39.23 5.93, 41.96 -0.33 M25.44 19.1 C30.84 12.67, 36.03 8, 42.94 0.59" stroke="#ffffff" stroke-width="2" fill="none"></path><path d="M0.93 0.94 C16.45 1.21, 35.27 -1.66, 48.01 1.41 M0.17 -0.38 C18.78 -0.89, 36.91 -0.74, 49.77 -0.06 M48.73 0 C49.06 4.48, 50.81 8.1, 49.03 15.52 M50.33 0.52 C49.36 4.12, 49.01 7.83, 49.64 16.5 M50.69 16.63 C31.85 17.12, 14.93 14.83, 1.54 16.94 M50.29 15.54 C31.13 16.34, 13.33 14.59, -0.23 15.41 M-0.88 15.14 C-1 13.25, -1.31 8.3, -0.08 -1.51 M-0.32 15.81 C0.06 12.01, -0.08 9, -0.35 -0.55" stroke="#ffffff" stroke-width="4" fill="none"></path></g><g stroke-linecap="round" transform="translate(46.24899487455332 67.06567500392885) rotate(0 5.7144517078941135 5.786785421925742)"><path d="M2.86 0 M2.86 0 C4.34 -0.18, 6.38 -0.32, 8.57 0 M2.86 0 C4.57 -0.01, 5.97 -0.22, 8.57 0 M8.57 0 C10.38 -1.99, 12.12 1.45, 11.43 2.86 M8.57 0 C10.2 -1.68, 12.46 0.35, 11.43 2.86 M11.43 2.86 C11.06 4.09, 11.84 5.85, 11.43 8.72 M11.43 2.86 C11.46 4.86, 11.48 6.79, 11.43 8.72 M11.43 8.72 C10.72 11.27, 8.68 12.05, 8.57 11.57 M11.43 8.72 C13.46 9.75, 12.73 13.81, 8.57 11.57 M8.57 11.57 C7.11 11.02, 5.38 11.81, 2.86 11.57 M8.57 11.57 C7.08 11.73, 5.35 11.49, 2.86 11.57 M2.86 11.57 C-0.84 12.17, -1.04 10.38, 0 8.72 M2.86 11.57 C-0.72 12.38, -1.07 9.66, 0 8.72 M0 8.72 C0.09 7.42, -0.51 5.91, 0 2.86 M0 8.72 C0.22 6.46, -0.2 4.46, 0 2.86 M0 2.86 C-1.03 2.75, 0.76 0.85, 2.86 0 M0 2.86 C0.89 2.92, -1.29 2.15, 2.86 0" stroke="#ffffff" stroke-width="2" fill="none"></path></g><g stroke-linecap="round" transform="translate(62.59666258775178 66.99334680860738) rotate(0 5.7144517078941135 5.786785421925742)"><path d="M2.86 0 M2.86 0 C4.37 -0.34, 5.03 0.54, 8.57 0 M2.86 0 C5.24 -0.18, 7.32 -0.29, 8.57 0 M8.57 0 C11.16 0.5, 11.19 -0.51, 11.43 2.86 M8.57 0 C11.5 -0.6, 9.93 2.55, 11.43 2.86 M11.43 2.86 C11.76 4.86, 11.67 6.47, 11.43 8.72 M11.43 2.86 C11.47 3.93, 11.33 5.37, 11.43 8.72 M11.43 8.72 C9.63 11.1, 12.24 10.81, 8.57 11.57 M11.43 8.72 C13.68 12.86, 9.76 11, 8.57 11.57 M8.57 11.57 C7.11 11.8, 5.72 11.69, 2.86 11.57 M8.57 11.57 C6.2 11.45, 3.8 11.68, 2.86 11.57 M2.86 11.57 C-0.09 11.33, -1.45 11.32, 0 8.72 M2.86 11.57 C-0.12 10.61, -1.07 12.86, 0 8.72 M0 8.72 C-0.47 7.41, 0.34 6.21, 0 2.86 M0 8.72 C-0.21 7.06, -0.2 5.75, 0 2.86 M0 2.86 C-0.2 1.8, 1.73 1.71, 2.86 0 M0 2.86 C-2.24 3.1, -1.26 1.26, 2.86 0" stroke="#ffffff" stroke-width="2" fill="none"></path></g><g stroke-linecap="round" transform="translate(79.5529136733312 67.10184462030338) rotate(0 5.7144517078941135 5.786785421925742)"><path d="M2.86 0 M2.86 0 C4.1 0.55, 6.34 0.5, 8.57 0 M2.86 0 C4.65 -0.25, 6.56 0.11, 8.57 0 M8.57 0 C10.24 -1.46, 12.32 0.43, 11.43 2.86 M8.57 0 C8.98 1.6, 11.48 -0.65, 11.43 2.86 M11.43 2.86 C11.74 4.54, 10.92 6.12, 11.43 8.72 M11.43 2.86 C11.33 4.65, 11.17 6.32, 11.43 8.72 M11.43 8.72 C13.2 9.86, 12.43 13.52, 8.57 11.57 M11.43 8.72 C10.71 10.04, 9 11.87, 8.57 11.57 M8.57 11.57 C7.21 11.77, 6.72 11.73, 2.86 11.57 M8.57 11.57 C6.39 11.63, 4.57 11.51, 2.86 11.57 M2.86 11.57 C-0.5 12.28, -0.93 9.78, 0 8.72 M2.86 11.57 C-0.11 13.81, -1.14 11.18, 0 8.72 M0 8.72 C0.4 7.2, -0.1 5.33, 0 2.86 M0 8.72 C-0.12 7.51, 0 5.91, 0 2.86 M0 2.86 C0.77 2.66, -1 1.87, 2.86 0 M0 2.86 C-2.22 2.21, 2.07 1.13, 2.86 0" stroke="#ffffff" stroke-width="2" fill="none"></path></g><g stroke-linecap="round" transform="translate(45.56182459124466 84.87811284337477) rotate(0 5.7144517078941135 5.786785421925742)"><path d="M2.86 0 M2.86 0 C4.73 0.41, 5.64 0.24, 8.57 0 M2.86 0 C4.33 0.13, 5.58 -0.15, 8.57 0 M8.57 0 C11.37 -0.52, 10.13 2.34, 11.43 2.86 M8.57 0 C10.52 -1.6, 10.86 2.42, 11.43 2.86 M11.43 2.86 C10.91 4.89, 11.4 6.92, 11.43 8.72 M11.43 2.86 C11.14 4.41, 11.67 5.71, 11.43 8.72 M11.43 8.72 C13.38 12.57, 9.85 11.07, 8.57 11.57 M11.43 8.72 C9.96 10.92, 8.4 11.1, 8.57 11.57 M8.57 11.57 C7.12 11.72, 4.8 11.36, 2.86 11.57 M8.57 11.57 C6.99 11.56, 5.5 11.69, 2.86 11.57 M2.86 11.57 C0.02 10.74, -0.93 12.57, 0 8.72 M2.86 11.57 C-0.18 12.13, 0.76 8.83, 0 8.72 M0 8.72 C-0.18 7.31, -0.33 4.56, 0 2.86 M0 8.72 C0 7.16, 0.14 5.61, 0 2.86 M0 2.86 C-1.95 2.82, -0.98 1.09, 2.86 0 M0 2.86 C1.12 2.08, -1.3 -1.7, 2.86 0" stroke="#ffffff" stroke-width="2" fill="none"></path></g><g stroke-linecap="round" transform="translate(62.01173967860086 84.80578464805694) rotate(0 5.7144517078941135 5.786785421925742)"><path d="M2.86 0 M2.86 0 C5.18 0.25, 6.98 -0.07, 8.57 0 M2.86 0 C3.97 -0.22, 5.27 -0.09, 8.57 0 M8.57 0 C9.17 1.39, 11.47 -0.44, 11.43 2.86 M8.57 0 C9.91 1.47, 12.35 2.04, 11.43 2.86 M11.43 2.86 C11.31 4.77, 11.1 6.31, 11.43 8.72 M11.43 2.86 C11.64 4.7, 11.66 7.04, 11.43 8.72 M11.43 8.72 C10.8 10.12, 9.2 11.83, 8.57 11.57 M11.43 8.72 C9.35 10.15, 11.59 10.93, 8.57 11.57 M8.57 11.57 C6.9 11.36, 4.52 11.07, 2.86 11.57 M8.57 11.57 C6.48 11.67, 4.67 11.45, 2.86 11.57 M2.86 11.57 C0.03 13.52, -0.99 11.11, 0 8.72 M2.86 11.57 C1.71 9.78, 0.65 12.01, 0 8.72 M0 8.72 C-0.28 6.22, -0.06 4.04, 0 2.86 M0 8.72 C0.12 6.68, -0.28 4.42, 0 2.86 M0 2.86 C-1.93 2.05, 1.93 0.98, 2.86 0 M0 2.86 C-2.25 -0.75, -0.04 1.87, 2.86 0" stroke="#ffffff" stroke-width="2" fill="none"></path></g><g stroke-linecap="round" transform="translate(78.86574339002618 84.91428245974748) rotate(0 5.7144517078941135 5.786785421925742)"><path d="M2.86 0 M2.86 0 C4.7 -0.06, 6.65 0.17, 8.57 0 M2.86 0 C4.84 -0.03, 6.39 0.24, 8.57 0 M8.57 0 C10.52 -1.39, 10.93 2.23, 11.43 2.86 M8.57 0 C11.4 1.09, 11.71 -1.21, 11.43 2.86 M11.43 2.86 C11.15 4.45, 11.61 5.93, 11.43 8.72 M11.43 2.86 C11.77 5.04, 11.39 6.58, 11.43 8.72 M11.43 8.72 C10.15 10.88, 8.67 11.16, 8.57 11.57 M11.43 8.72 C12.54 9.98, 11.15 13.75, 8.57 11.57 M8.57 11.57 C6.45 11.04, 5.06 11.25, 2.86 11.57 M8.57 11.57 C6.79 11.47, 5.15 11.87, 2.86 11.57 M2.86 11.57 C-0.04 12.06, 0.66 9.06, 0 8.72 M2.86 11.57 C1.6 12.96, 1.69 10.07, 0 8.72 M0 8.72 C-0.05 6.14, 0.55 4.1, 0 2.86 M0 8.72 C-0.31 6.98, -0.31 4.86, 0 2.86 M0 2.86 C0.97 1.94, -1.01 -1.48, 2.86 0 M0 2.86 C-1 2.83, -1.19 -1.42, 2.86 0" stroke="#ffffff" stroke-width="2" fill="none"></path></g></svg>
